;FLAVOR:Marlin
;TIME:1191
;Filament used: 0.866808m
;Layer height: 0.2
;MINX:79.6
;MINY:79.6
;MINZ:0.3
;MAXX:130.4
;MAXY:130.4
;MAXZ:1.975
;Generated with Cura_SteamEngine 4.12.1
M82 ;absolute extrusion mode
G21                                        ; metric values 
G90                                        ; absolute positioning 
M82                                        ; set extruder to absolute mode 
M107                                       ; start with the fan off 
M140 S70           ; Start heating the bed 
G4 S60                                     ; wait 1 minute 
M104 S250         ; start heating the hot end 
M190 S70           ; wait for bed 
M109 S250         ; wait for hotend 
M300 S1000 P500                            ; BEEP heating done 
G28 X0 Y10 Z0                              ; move X/Y to min endstops 
M420 S1                                    ; Enable leveling 
M420 Z2.0                                  ; Set leveling fading height to 2 mm 
G0 Z0.15                                   ; lift nozzle a bit 
G92 E0                                     ; zero the extruded length 
G1 X50 E25 F500                            ; Extrude 25mm of filament in a 5cm line. 
G92 E0                                     ; zero the extruded length again 
G1 E-2 F500                                ; Retract a little 
G1 X120 F4000                              ; Quickly wipe away from the filament line`
G92 E0
G92 E0
G1 F1500 E-6
;LAYER_COUNT:9
;LAYER:0
M106 S76.5
M205 X10 Y10
G1 F600 Z0.375
G0 F6000 X82.141 Y82.602 Z0.375
M205 X8 Y8
;TYPE:SKIRT
G1 F600 Z0.3
G1 F1500 E0
G1 F1200 X82.762 Y81.988 E0.04357
G1 X83.267 Y81.57 E0.07627
G1 X84.007 Y81.055 E0.12125
G1 X84.575 Y80.725 E0.15403
G1 X84.766 Y80.625 E0.16478
G1 X85.334 Y80.362 E0.19601
G1 X85.633 Y80.241 E0.2121
G1 X86.183 Y80.048 E0.24118
G1 X86.676 Y79.909 E0.26674
G1 X87.35 Y79.763 E0.30114
G1 X88.046 Y79.662 E0.33623
G1 X88.168 Y79.65 E0.34235
G1 X88.68 Y79.62 E0.36793
G1 X89.865 Y79.6 E0.42706
G1 X120.2 Y79.601 E1.94048
G1 X121.305 Y79.622 E1.99562
G1 X121.813 Y79.652 E2.02101
G1 X122.086 Y79.679 E2.0347
G1 X122.768 Y79.784 E2.06912
G1 X123.412 Y79.933 E2.1021
G1 X123.997 Y80.108 E2.13256
G1 X124.203 Y80.179 E2.14343
G1 X124.833 Y80.434 E2.17734
G1 X125.102 Y80.56 E2.19216
G1 X125.568 Y80.802 E2.21836
G1 X125.781 Y80.924 E2.23061
G1 X126.29 Y81.249 E2.26073
G1 X126.555 Y81.436 E2.27692
G1 X127.044 Y81.818 E2.30787
G1 X127.527 Y82.253 E2.3403
G1 X127.979 Y82.726 E2.37294
G1 X128.406 Y83.236 E2.40613
G1 X128.775 Y83.745 E2.43749
G1 X128.918 Y83.964 E2.45054
G1 X129.215 Y84.468 E2.47973
G1 X129.554 Y85.136 E2.5171
G1 X129.795 Y85.725 E2.54885
G1 X129.985 Y86.289 E2.57854
G1 X130.142 Y86.888 E2.60944
G1 X130.272 Y87.55 E2.64309
G1 X130.364 Y88.37 E2.68426
G1 X130.386 Y88.885 E2.70998
G1 X130.4 Y89.785 E2.75488
G1 X130.399 Y120.317 E4.27813
G1 X130.385 Y121.191 E4.32174
G1 X130.345 Y121.864 E4.35538
G1 X130.227 Y122.717 E4.39834
G1 X130.081 Y123.363 E4.43138
G1 X129.901 Y123.977 E4.4633
G1 X129.701 Y124.52 E4.49217
G1 X129.459 Y125.07 E4.52215
G1 X129.09 Y125.752 E4.56084
G1 X128.764 Y126.272 E4.59146
G1 X128.445 Y126.712 E4.61857
G1 X128.293 Y126.904 E4.63079
G1 X127.862 Y127.395 E4.66338
G1 X127.276 Y127.978 E4.70462
G1 X126.742 Y128.423 E4.7393
G1 X125.992 Y128.946 E4.78492
G1 X125.425 Y129.275 E4.81762
G1 X125.234 Y129.375 E4.82838
G1 X124.666 Y129.638 E4.85961
G1 X124.367 Y129.759 E4.8757
G1 X123.817 Y129.952 E4.90478
G1 X123.324 Y130.091 E4.93033
G1 X122.65 Y130.237 E4.96474
G1 X121.954 Y130.338 E4.99983
G1 X121.832 Y130.35 E5.00594
G1 X121.32 Y130.38 E5.03153
G1 X120.136 Y130.4 E5.09061
G1 X109.867 Y130.399 E5.60293
G1 X108.863 Y130.384 E5.65303
G1 X106.591 Y130.319 E5.76642
G1 X103.93 Y130.319 E5.89918
G1 X102.419 Y130.351 E5.97458
G1 X100.844 Y130.397 E6.05319
G1 X100.655 Y130.4 E6.06262
G1 X89.8 Y130.399 E6.60418
G1 X88.695 Y130.378 E6.65932
G1 X88.187 Y130.348 E6.68471
G1 X87.914 Y130.321 E6.69839
G1 X87.232 Y130.216 E6.73282
G1 X86.588 Y130.067 E6.7658
G1 X86.003 Y129.892 E6.79626
G1 X85.797 Y129.821 E6.80713
G1 X85.165 Y129.565 E6.84115
G1 X84.892 Y129.437 E6.85619
G1 X84.417 Y129.189 E6.88293
G1 X84.205 Y129.067 E6.89513
G1 X83.702 Y128.745 E6.92493
G1 X83.439 Y128.559 E6.941
G1 X82.962 Y128.187 E6.97118
G1 X82.467 Y127.742 E7.00439
G1 X81.987 Y127.236 E7.03918
G1 X81.611 Y126.787 E7.0684
G1 X81.207 Y126.23 E7.10273
G1 X81.066 Y126.012 E7.11568
G1 X80.779 Y125.522 E7.14401
G1 X80.438 Y124.848 E7.1817
G1 X80.202 Y124.267 E7.21298
G1 X80.007 Y123.682 E7.24375
G1 X79.859 Y123.118 E7.27284
G1 X79.728 Y122.445 E7.30704
G1 X79.636 Y121.63 E7.34796
G1 X79.613 Y121.089 E7.37498
G1 X79.6 Y120.215 E7.41859
G1 X79.601 Y89.683 E8.94183
G1 X79.615 Y88.809 E8.98544
G1 X79.657 Y88.117 E9.02003
G1 X79.776 Y87.272 E9.0626
G1 X79.919 Y86.637 E9.09508
G1 X80.099 Y86.023 E9.127
G1 X80.299 Y85.48 E9.15587
G1 X80.541 Y84.93 E9.18585
G1 X80.919 Y84.234 E9.22536
G1 X81.214 Y83.764 E9.25305
G1 X81.369 Y83.539 E9.26668
G1 X81.76 Y83.028 E9.29878
G1 X82.141 Y82.602 E9.32729
M205 X10 Y10
G0 F6000 X82.428 Y82.88
M205 X8 Y8
G1 F1200 X83.028 Y82.287 E9.36938
G1 X83.516 Y81.883 E9.40099
G1 X84.214 Y81.397 E9.44342
G1 X84.761 Y81.079 E9.47499
G1 X84.952 Y80.979 E9.48574
G1 X85.484 Y80.733 E9.51498
G1 X85.783 Y80.612 E9.53108
G1 X86.299 Y80.43 E9.55837
G1 X87.007 Y80.241 E9.59493
G1 X87.678 Y80.114 E9.629
G1 X88.207 Y80.048 E9.6556
G1 X88.688 Y80.02 E9.67964
G1 X89.865 Y80 E9.73837
G1 X120.078 Y80 E11.2457
G1 X121.297 Y80.022 E11.30653
G1 X122.047 Y80.077 E11.34404
G1 X122.686 Y80.175 E11.3763
G1 X123.304 Y80.318 E11.40794
G1 X123.867 Y80.486 E11.43725
G1 X124.073 Y80.557 E11.44813
G1 X124.663 Y80.797 E11.4799
G1 X125.369 Y81.15 E11.51928
G1 X125.582 Y81.272 E11.53153
G1 X126.059 Y81.576 E11.55975
G1 X126.324 Y81.763 E11.57593
G1 X126.783 Y82.121 E11.60497
G1 X127.246 Y82.538 E11.63606
G1 X127.684 Y82.997 E11.66771
G1 X128.094 Y83.487 E11.69959
G1 X128.44 Y83.964 E11.72899
G1 X128.583 Y84.183 E11.74203
G1 X128.861 Y84.655 E11.76936
G1 X129.19 Y85.3 E11.80549
G1 X129.422 Y85.869 E11.83614
G1 X129.603 Y86.406 E11.86442
G1 X129.753 Y86.982 E11.89411
G1 X129.878 Y87.619 E11.9265
G1 X129.964 Y88.39 E11.9652
G1 X129.986 Y88.892 E11.99027
G1 X130 Y89.785 E12.03483
G1 X129.999 Y120.31 E13.55773
G1 X129.985 Y121.184 E13.60133
G1 X129.946 Y121.834 E13.63382
G1 X129.835 Y122.637 E13.67426
G1 X129.695 Y123.258 E13.70602
G1 X129.522 Y123.849 E13.73675
G1 X129.332 Y124.366 E13.76423
G1 X129.099 Y124.894 E13.79302
G1 X128.741 Y125.555 E13.83052
G1 X128.43 Y126.052 E13.85977
G1 X128.131 Y126.464 E13.88517
G1 X127.979 Y126.656 E13.89739
G1 X127.575 Y127.116 E13.92793
G1 X127.008 Y127.682 E13.9679
G1 X126.493 Y128.11 E14.00131
G1 X125.785 Y128.604 E14.04438
G1 X125.239 Y128.921 E14.07588
G1 X125.048 Y129.021 E14.08663
G1 X124.516 Y129.267 E14.11588
G1 X124.217 Y129.388 E14.13197
G1 X123.701 Y129.57 E14.15927
G1 X122.993 Y129.759 E14.19582
G1 X122.322 Y129.886 E14.2299
G1 X121.793 Y129.952 E14.25649
G1 X121.313 Y129.98 E14.28048
G1 X120.136 Y130 E14.33921
G1 X109.872 Y129.999 E14.85128
G1 X108.874 Y129.985 E14.90108
G1 X106.567 Y129.919 E15.01622
G1 X103.921 Y129.919 E15.14823
G1 X102.41 Y129.95 E15.22363
G1 X100.832 Y129.997 E15.30239
G1 X100.655 Y130 E15.31122
G1 X89.808 Y129.999 E15.85238
G1 X88.703 Y129.978 E15.90752
G1 X87.953 Y129.923 E15.94504
G1 X87.314 Y129.825 E15.97729
G1 X86.696 Y129.682 E16.00894
G1 X86.133 Y129.514 E16.03825
G1 X85.927 Y129.443 E16.04912
G1 X85.335 Y129.203 E16.08099
G1 X85.062 Y129.075 E16.09603
G1 X84.616 Y128.842 E16.12114
G1 X84.404 Y128.72 E16.13334
G1 X83.933 Y128.419 E16.16123
G1 X83.67 Y128.233 E16.1773
G1 X83.223 Y127.884 E16.20559
G1 X82.748 Y127.457 E16.23746
G1 X82.284 Y126.968 E16.27109
G1 X81.922 Y126.535 E16.29925
G1 X81.543 Y126.013 E16.33143
G1 X81.402 Y125.795 E16.34438
G1 X81.133 Y125.335 E16.37097
G1 X80.803 Y124.685 E16.40734
G1 X80.575 Y124.124 E16.43755
G1 X80.389 Y123.566 E16.46689
G1 X80.248 Y123.024 E16.49483
G1 X80.122 Y122.376 E16.52777
G1 X80.036 Y121.609 E16.56627
G1 X80.013 Y121.083 E16.59254
G1 X80 Y120.215 E16.63585
G1 X80.001 Y89.69 E18.15875
G1 X80.015 Y88.816 E18.20236
G1 X80.056 Y88.149 E18.2357
G1 X80.167 Y87.352 E18.27584
G1 X80.305 Y86.742 E18.30705
G1 X80.478 Y86.151 E18.33777
G1 X80.668 Y85.634 E18.36525
G1 X80.901 Y85.106 E18.39404
G1 X81.267 Y84.431 E18.43235
G1 X81.543 Y83.991 E18.45826
G1 X81.698 Y83.766 E18.47189
G1 X82.065 Y83.287 E18.502
G1 X82.428 Y82.88 E18.52921
M205 X10 Y10
G0 F6000 X82.715 Y83.159
M205 X8 Y8
G1 F1200 X83.294 Y82.586 E18.56985
G1 X83.765 Y82.196 E18.60036
G1 X84.421 Y81.739 E18.64024
G1 X84.947 Y81.434 E18.67058
G1 X85.138 Y81.334 E18.68133
G1 X85.634 Y81.104 E18.70861
G1 X85.933 Y80.983 E18.7247
G1 X86.414 Y80.813 E18.75015
G1 X87.101 Y80.63 E18.78562
G1 X87.745 Y80.508 E18.81832
G1 X88.246 Y80.446 E18.84351
G1 X88.695 Y80.42 E18.86595
G1 X89.865 Y80.4 E18.92433
G1 X120.078 Y80.4 E20.43166
G1 X121.289 Y80.422 E20.49209
G1 X122.007 Y80.475 E20.52801
G1 X122.604 Y80.567 E20.55814
G1 X123.196 Y80.703 E20.58845
G1 X123.737 Y80.865 E20.61662
G1 X123.943 Y80.936 E20.62749
G1 X124.493 Y81.159 E20.6571
G1 X125.17 Y81.497 E20.69485
G1 X125.383 Y81.619 E20.7071
G1 X125.829 Y81.903 E20.73348
G1 X126.094 Y82.09 E20.74966
G1 X126.522 Y82.424 E20.77675
G1 X126.965 Y82.823 E20.80649
G1 X127.389 Y83.267 E20.83712
G1 X127.782 Y83.737 E20.86768
G1 X128.105 Y84.182 E20.89512
G1 X128.248 Y84.401 E20.90817
G1 X128.508 Y84.842 E20.93371
G1 X128.825 Y85.465 E20.96858
G1 X129.049 Y86.013 E20.99812
G1 X129.22 Y86.524 E21.025
G1 X129.365 Y87.076 E21.05347
G1 X129.484 Y87.689 E21.08463
G1 X129.565 Y88.411 E21.12087
G1 X129.586 Y88.898 E21.14519
G1 X129.6 Y89.785 E21.18945
G1 X129.599 Y120.304 E22.71205
G1 X129.585 Y121.178 E22.75566
G1 X129.548 Y121.803 E22.7869
G1 X129.443 Y122.557 E22.82488
G1 X129.309 Y123.152 E22.8553
G1 X129.143 Y123.72 E22.88483
G1 X128.962 Y124.212 E22.91098
G1 X128.74 Y124.718 E22.93855
G1 X128.393 Y125.358 E22.97487
G1 X128.097 Y125.831 E23.00271
G1 X127.666 Y126.408 E23.03864
G1 X127.288 Y126.837 E23.06716
G1 X126.74 Y127.385 E23.10583
G1 X126.243 Y127.797 E23.13804
G1 X125.578 Y128.262 E23.17852
G1 X125.053 Y128.566 E23.20879
G1 X124.862 Y128.666 E23.21954
G1 X124.366 Y128.896 E23.24682
G1 X124.067 Y129.017 E23.26291
G1 X123.586 Y129.187 E23.28836
G1 X122.899 Y129.37 E23.32383
G1 X122.255 Y129.492 E23.35653
G1 X121.754 Y129.554 E23.38172
G1 X121.305 Y129.58 E23.40416
G1 X120.136 Y129.6 E23.46249
G1 X109.878 Y129.599 E23.97426
G1 X108.886 Y129.585 E24.02376
G1 X106.579 Y129.519 E24.1389
G1 X103.913 Y129.519 E24.27191
G1 X102.445 Y129.55 E24.34516
G1 X100.82 Y129.598 E24.42627
G1 X100.655 Y129.6 E24.4345
G1 X89.816 Y129.599 E24.97526
G1 X88.711 Y129.578 E25.0304
G1 X87.993 Y129.525 E25.06632
G1 X87.396 Y129.433 E25.09646
G1 X86.804 Y129.297 E25.12676
G1 X86.263 Y129.135 E25.15494
G1 X86.057 Y129.064 E25.16581
G1 X85.505 Y128.84 E25.19553
G1 X84.816 Y128.496 E25.23395
G1 X84.604 Y128.374 E25.24615
G1 X84.163 Y128.092 E25.27227
G1 X83.9 Y127.906 E25.28834
G1 X83.483 Y127.581 E25.31471
G1 X83.029 Y127.173 E25.34517
G1 X82.581 Y126.699 E25.3777
G1 X82.233 Y126.283 E25.40476
G1 X81.879 Y125.795 E25.43484
G1 X81.487 Y125.149 E25.47254
G1 X81.168 Y124.521 E25.50768
G1 X80.948 Y123.98 E25.53682
G1 X80.772 Y123.451 E25.56463
G1 X80.637 Y122.929 E25.59153
G1 X80.516 Y122.307 E25.62314
G1 X80.435 Y121.589 E25.65919
G1 X80.413 Y121.077 E25.68476
G1 X80.4 Y120.215 E25.72777
G1 X80.401 Y89.696 E27.25037
G1 X80.415 Y88.822 E27.29398
G1 X80.454 Y88.18 E27.32607
G1 X80.559 Y87.432 E27.36375
G1 X80.691 Y86.848 E27.39362
G1 X80.857 Y86.28 E27.42315
G1 X81.038 Y85.788 E27.4493
G1 X81.26 Y85.282 E27.47687
G1 X81.615 Y84.629 E27.51395
G1 X82.027 Y83.993 E27.55175
G1 X82.37 Y83.546 E27.57986
G1 X82.715 Y83.159 E27.60573
M205 X10 Y10
G0 F6000 X83.287 Y83.145
M205 X8 Y8
G1 F1200 X83.814 Y82.669 E27.64116
G1 X84.256 Y82.328 E27.66901
G1 X84.851 Y81.947 E27.70426
G1 X85.323 Y81.688 E27.73112
G1 X85.784 Y81.475 E27.75646
G1 X86.53 Y81.196 E27.79619
G1 X87.194 Y81.019 E27.83048
G1 X87.811 Y80.903 E27.8618
G1 X88.702 Y80.82 E27.90644
G1 X89.865 Y80.8 E27.96447
G1 X120.078 Y80.8 E29.47181
G1 X121.282 Y80.822 E29.53188
G1 X121.968 Y80.873 E29.5662
G1 X122.522 Y80.958 E29.59416
G1 X123.089 Y81.089 E29.6232
G1 X123.606 Y81.243 E29.65011
G1 X123.812 Y81.314 E29.66098
G1 X124.324 Y81.521 E29.68853
G1 X124.971 Y81.844 E29.72461
G1 X125.598 Y82.229 E29.76132
G1 X125.863 Y82.416 E29.7775
G1 X126.261 Y82.727 E29.8027
G1 X126.684 Y83.107 E29.83107
G1 X127.094 Y83.537 E29.86071
G1 X127.47 Y83.988 E29.89
G1 X127.77 Y84.401 E29.91547
G1 X128.154 Y85.029 E29.9522
G1 X128.46 Y85.629 E29.9858
G1 X128.676 Y86.157 E30.01426
G1 X128.838 Y86.641 E30.03972
G1 X128.976 Y87.171 E30.06705
G1 X129.09 Y87.758 E30.09688
G1 X129.165 Y88.431 E30.13066
G1 X129.186 Y88.905 E30.15433
G1 X129.2 Y89.785 E30.19824
G1 X129.199 Y120.297 E31.72049
G1 X129.185 Y121.171 E31.7641
G1 X129.149 Y121.772 E31.79414
G1 X129.051 Y122.477 E31.82965
G1 X128.923 Y123.047 E31.8588
G1 X128.765 Y123.591 E31.88706
G1 X128.51 Y124.257 E31.92264
G1 X128.213 Y124.864 E31.95635
G1 X127.855 Y125.471 E31.99151
G1 X127.504 Y125.968 E32.02187
G1 X127.352 Y126.16 E32.03408
G1 X127.002 Y126.558 E32.06052
G1 X126.471 Y127.088 E32.09795
G1 X125.994 Y127.484 E32.12888
G1 X125.371 Y127.919 E32.16679
G1 X124.868 Y128.212 E32.19583
G1 X124.677 Y128.312 E32.20659
G1 X124.216 Y128.525 E32.23193
G1 X123.47 Y128.804 E32.27166
G1 X122.806 Y128.981 E32.30595
G1 X122.189 Y129.097 E32.33727
G1 X121.298 Y129.18 E32.38191
G1 X120.136 Y129.2 E32.43989
G1 X109.884 Y129.199 E32.95137
G1 X108.897 Y129.185 E33.00061
G1 X106.59 Y129.119 E33.11576
G1 X103.904 Y129.119 E33.24976
G1 X102.425 Y129.15 E33.32357
G1 X100.808 Y129.198 E33.40427
G1 X100.655 Y129.2 E33.41191
G1 X89.823 Y129.199 E33.95232
G1 X88.718 Y129.178 E34.00746
G1 X88.032 Y129.127 E34.04178
G1 X87.478 Y129.042 E34.06974
G1 X86.911 Y128.911 E34.09877
G1 X86.394 Y128.757 E34.12569
G1 X86.188 Y128.686 E34.13656
G1 X85.675 Y128.478 E34.16417
G1 X85.015 Y128.149 E34.20097
G1 X84.394 Y127.766 E34.23737
G1 X83.744 Y127.277 E34.27795
G1 X83.31 Y126.888 E34.30702
G1 X82.878 Y126.431 E34.3384
G1 X82.543 Y126.031 E34.36443
G1 X82.215 Y125.578 E34.39233
G1 X81.841 Y124.962 E34.42828
G1 X81.533 Y124.357 E34.46215
G1 X81.322 Y123.837 E34.49015
G1 X81.155 Y123.335 E34.51655
G1 X81.025 Y122.835 E34.54232
G1 X80.91 Y122.238 E34.57265
G1 X80.835 Y121.569 E34.60624
G1 X80.813 Y121.071 E34.63111
G1 X80.8 Y120.215 E34.67382
G1 X80.801 Y89.703 E36.19607
G1 X80.815 Y88.829 E36.23968
G1 X80.853 Y88.212 E36.27052
G1 X80.951 Y87.512 E36.30578
G1 X81.077 Y86.953 E36.33437
G1 X81.235 Y86.409 E36.36263
G1 X81.49 Y85.743 E36.39821
G1 X81.792 Y85.127 E36.43244
G1 X82.202 Y84.445 E36.47214
G1 X82.357 Y84.22 E36.48577
G1 X82.675 Y83.804 E36.51189
G1 X83.287 Y83.145 E36.55676
M205 X10 Y10
G1 F1500 E30.55676
G1 F600 Z0.375
;MESH:Bandsaw 0v0001.stl
G0 F6000 X115.646 Y98.898 Z0.375
M205 X8 Y8
;TYPE:WALL-INNER
G1 F600 Z0.3
G1 F1500 E36.55676
G1 F1200 X116.298 Y98.997 E36.58966
G1 X116.956 Y98.972 E36.62251
G1 X117.6 Y98.828 E36.65544
G1 X118.202 Y98.562 E36.68827
G1 X118.756 Y98.182 E36.72179
G1 X119.329 Y97.569 E36.76365
G1 X119.671 Y96.991 E36.79716
G1 X119.893 Y96.372 E36.82997
G1 X119.997 Y95.721 E36.86286
G1 X119.977 Y95.062 E36.89575
G1 X119.832 Y94.417 E36.92873
G1 X119.571 Y93.812 E36.9616
G1 X119.198 Y93.264 E36.99468
G1 X118.721 Y92.789 E37.02826
G1 X118.172 Y92.421 E37.06123
G1 X117.566 Y92.162 E37.09411
G1 X116.933 Y92.026 E37.12641
G1 X116.47 Y91.998 E37.14956
G1 X115.825 Y92.063 E37.1819
G1 X115.194 Y92.25 E37.21473
G1 X114.597 Y92.556 E37.2482
G1 X113.954 Y93.092 E37.28996
G1 X113.542 Y93.623 E37.3235
G1 X113.244 Y94.21 E37.35634
G1 X113.057 Y94.843 E37.38927
G1 X112.996 Y95.5 E37.42219
G1 X113.057 Y96.157 E37.45511
G1 X113.244 Y96.79 E37.48804
G1 X113.542 Y97.377 E37.52088
G1 X113.949 Y97.901 E37.55398
G1 X114.455 Y98.345 E37.58757
G1 X115.026 Y98.679 E37.62057
G1 X115.646 Y98.898 E37.65337
M205 X10 Y10
G0 F6000 X115.744 Y98.508
M205 X8 Y8
